X: 17664
T: Holly Bush, The
R: jig
M: 6/8
K: Gmajor
A|BAG GDG|GDG ABc|~B3 edc|BdB cBA|
BAG GDG|GDG ABc|~B3 edc|def g2:|
|:f|gdd gdd|gdd dcB|Acc AcA|~c3 cBA|
~B3 cBc|dBG Fdc|~B3 edc|def g2:|

